picto/arrival-left-framed.svg

<svg class="color-immutable" width="30" height="30" viewBox="0 0 30 30" fill="none" xmlns="http://www.w3.org/2000/svg"><path d="M29.9999 0H0V29.9999H29.9999V0Z" fill="#2D327D"/><path d="M25.4999 2.99999C26.3249 2.99999 26.9999 3.67499 26.9999 4.49999V25.4999C26.9999 26.3249 26.3249 26.9999 25.4999 26.9999H4.49999C3.67499 26.9999 2.99999 26.3249 2.99999 25.4999V4.49999C2.99999 3.67499 3.67499 2.99999 4.49999 2.99999H25.4999ZM25.4999 2.62499H4.49999C3.46612 2.62499 2.62499 3.46612 2.62499 4.49999V25.4999C2.62499 26.5338 3.46612 27.3749 4.49999 27.3749H25.4999C26.5338 27.3749 27.3749 26.5338 27.3749 25.4999V4.49999C27.3749 3.46612 26.5338 2.62499 25.4999 2.62499Z" fill="white"/><path d="M6.23087 24.1854H23.8558C23.9583 24.1854 24.0413 24.1025 24.0413 23.9999C24.0413 23.8974 23.9583 23.8145 23.8558 23.8145H6.23087C6.12842 23.8145 6.0454 23.8974 6.0454 23.9999C6.0454 24.1025 6.12842 24.1854 6.23087 24.1854Z" fill="white"/><path d="M6.02065 16.8744C6.18827 16.5708 6.40037 16.2939 6.6487 16.0518C7.15157 15.5614 7.78907 15.2307 8.4799 15.1012L14.2385 14.0861L17.5742 6.37896L19.0387 5.99999L19.336 13.1871L22.0024 12.7169L22.5636 10.6902L23.7183 10.5406L24.1113 13.8306L19.4657 16.4881L8.35105 18.4477C7.81127 18.543 7.25785 18.5322 6.72205 18.417L6.72265 18.4176C6.5188 18.3737 6.33265 18.2708 6.1879 18.1223C5.86293 17.7891 5.79528 17.2814 6.02065 16.8744Z" fill="white"/><path d="M9.13927 19.6801C9.41609 19.6801 9.64049 19.4557 9.64049 19.1789C9.64049 18.9021 9.41609 18.6777 9.13927 18.6777C8.86245 18.6777 8.63804 18.9021 8.63804 19.1789C8.63804 19.4557 8.86245 19.6801 9.13927 19.6801Z" fill="white"/><path d="M16.0235 18.2117C16.1348 17.9332 15.9992 17.6172 15.7207 17.5059C15.4422 17.3946 15.1262 17.5301 15.0149 17.8086C14.9036 18.0871 15.0391 18.4032 15.3176 18.5145C15.5961 18.6258 15.9122 18.4902 16.0235 18.2117Z" fill="white"/><path d="M17.4273 18.1557C17.6595 17.9658 17.6938 17.6237 17.5039 17.3915C17.314 17.1593 16.9719 17.125 16.7397 17.3149C16.5075 17.5048 16.4732 17.847 16.6631 18.0791C16.853 18.3113 17.1952 18.3456 17.4273 18.1557Z" fill="white"/></svg>

<svg class="color-immutable" width="30" height="30" viewBox="0 0 30 30" fill="none" xmlns="http://www.w3.org/2000/svg"><path d="M30 0H0v30h30V0Z" fill="#2D327D"/><path d="M25.5 3c.825 0 1.5.675 1.5 1.5v21c0 .825-.675 1.5-1.5 1.5h-21c-.825 0-1.5-.675-1.5-1.5v-21C3 3.675 3.675 3 4.5 3h21Zm0-.375h-21A1.877 1.877 0 0 0 2.625 4.5v21c0 1.034.841 1.875 1.875 1.875h21a1.877 1.877 0 0 0 1.875-1.875v-21A1.877 1.877 0 0 0 25.5 2.625Z" fill="#fff"/><path d="M6.23 24.185h17.626a.185.185 0 1 0 0-.37H6.23a.185.185 0 1 0 0 .37ZM6.02 16.874a3.563 3.563 0 0 1 2.46-1.773l5.758-1.015 3.336-7.707L19.04 6l.297 7.187 2.666-.47.562-2.027 1.154-.15.393 3.29-4.645 2.658-11.115 1.96a4.242 4.242 0 0 1-1.629-.031 1.056 1.056 0 0 1-.702-1.543ZM9.14 19.68a.501.501 0 1 0 0-1.002.501.501 0 0 0 0 1.002ZM16.023 18.212a.543.543 0 1 0-1.008-.403.543.543 0 0 0 1.008.403ZM17.427 18.156a.543.543 0 1 0-.687-.841.543.543 0 0 0 .687.84Z" fill="#fff"/></svg>
